X:1
T:Otto Olsson (1879 - 1964)
T:SEX LATINSKA HYMER Op. 40 PSALMUS CXX
%%score [ 1 2 3 4 ]
L:1/8
Q:1/4=60
M:4/4
K:D
V:1 treble nm="Soprano" snm="S"
V:2 treble nm="Alto" snm="A"
V:3 treble-8 nm="Tenor" snm="T"
V:4 bass nm="Bajo" snm="B"
V:1
"^Andantino, cuasi parlando"!p! F | !>!A>A A3 A FA | B2 BF A2 A2 | z FGF E3 F | F6 z2 | %5
w: Ad|Do- mi- nun cum tri- bu-|la- rer cla- ma- vi|et e- xau- di- vit|me.|
 F2 FF A2 AA | AA/A/ AA/A/ A>A FA | (B3 F) A4 | z FGF E2 E>F | F2 F4 z2 | E2"^(crescendo)" E4 D2 | %11
w: Do- mi- ne li- be- ra|a- ni- man me- am a la- bi- is i-|ni- * quis|et _ a lin- gua do-|lo- sa,|Quid de- tur|
!f!!>(! C4 ^D4!>)! | z2!p! F2 F2 GF |"^cresc." E4 F4 |!<(! A4 F4!<)! | %15
w: ti- bi,|aut quid ap- po-|na- tur|ti- bi|
"^cresc." z2!<(! F2 B2!<)! BA | (A2 G2) !fermata!F2 z3/2!ff! c/ | %17
w: ad lin- guam do-|lo- * sam? Sa-|
[Q:1/4=90]"^(Piú mosso)" c2 c>c e2 e>e | c2 c2 z2 cc | d3 c B2 (3ABA | G3 F F2 !fermata!z2 | %21
w: git- tæ po- ten- tis a-|cu- tæ cum car-|bo- ni- bus de- so- la-|to- ri- is.|
[Q:1/4=60]"^(Tempo primo)" z2!p! F2 A2 A2 | AAFA B3 F | A2 A2 z FGF | E3 F F2 FA | d2 d3 c Bd | %26
w: Heu mi- hi,|qui- a in- co- la- tus|me- us pro- * lon-|ga- tus est ha- bi-|ta- vi cum ha- bi-|
 f3 c c2 ^d2 | e2 z2 B2 c2 | d2 A2 A2 BB | c2 (3BcB"^(rall.)" B2 A2 | z8 | z8 | z2 z!mf! F A2 FA | %33
w: tan- ti- bus Ce-|dar: mul- tum|in- co- la fu- it|a- ni- * ma me- a.|||Cum his, qui o-|
 B3 F A2 A2 | z FGF E3 F | F2 z2 z4 |!f! BB d2 (Bd) e2- | eBdf g>g d2 | f4 !fermata!f2 z2 | %39
w: de- runt pa- cem,|e- ram pa- ci- fi-|cus,|cum lo- que bar _ il-|* lis im- pug- na- bant me|gra- tis,|
!p! FF G2 F2 E2 | F4 F4 |] %41
w: im- pug- na- bant me|gra- tis.|
V:2
!p! D | !>!F>F F3 F DF | F2 FD F2 F2 | z DDD C3 D | D6 z2 | D2 DD F2 FF | FF/F/ FF/F/ F>F DF | %7
w: Ad|Do- mi- nun cum tri- bu-|la- rer cla- ma- vi|et e- xau- di- vit|me.|Do- mi- ne li- be- ra|a- ni- man me- am a la- bi- is i-|
 (F3 D) F4 | z D2 D C2 C>D | D2 D4 z2 | B,2"^(crescendo)" B,4 B,2 |!f!!>(! ^A,4 B,4!>)! | %12
w: ni- * quis|et a lin- gua do-|lo- sa,|Quid de- tur|ti- bi,|
 z2!p! D2 D2 DD |"^cresc." B,4 ^D4 |!<(! E4 ^D4!<)! |"^cresc." z2!<(! ^D2 E2!<)! EE | %16
w: aut quid ap- po-|na- tur|ti- bi|ad lin- guam do-|
 (E3 D) !fermata!C2 z3/2!ff! ^A/ | ^A2 A>A c2 c>c | ^A2 A2 z2 AA | B3 A G2 (3FGF | %20
w: lo- * sam? Sa-|git- tæ po- ten- tis a-|cu- tæ cum car-|bo- ni- bus de- so- la-|
 E3 C C2 !fermata!z2 | z2!p! D2 F2 F2 | FFDF F3 D | F2 F2 z D2 D | C3 D D2 DF | F2 F3 F FG | %26
w: to- ri- is.|Heu mi- hi,|qui- a in- co- la- tus|me- us pro- lon-|ga- tus est ha- bi-|ta- vi cum ha- bi-|
 A3 A A2 F2 | G2 z2 G2 G2 | B2 F2 F2 FF | A2 (3FAF ^G2 A2 | z8 | z2!mf! D2 F2 DF | G3 D F2 F2 | %33
w: tan- ti- bus Ce-|dar. mul- tum|in- co- la fu- it|a- ni- * ma me- a.||Cum his, qui o-|de- runt pa- cem,|
 F4 F2 (F2 | D2) CD B,3 ^D | ^D2!f! DD F2 (DF) | G3 D F2 G2 | B2 Bc B4 | d4 !fermata!d2 z2 | %39
w: e- ram pa-|* ci- * fi- *|cus, cum lo- que bar _|il- lis im- pug-|na- bant _ me|gra- tis,|
!p! DD D2 D2 C2 | D4 D4 |] %41
w: im- pug- na- bant me|gra- tis.|
V:3
!p! A | !>!A>A A3 A AA | d2 dd d2 d2 | z ABA A3 A | A6 z2 | A2 AA A2 AA | AA/A/ AA/A/ A>A AA | %7
w: Ad|Do- mi- nun cum tri- bu-|la- rer cla- ma- vi|et e- xau- di- vit|me.|Do- mi- ne li- be- ra|a- ni- man me- am a la- bi- is i-|
 d4 d4 | z ABA A2 A>A | A2 A4 z2 | G2"^(crescendo)" G4 F2 |!f!!>(! F4 F4!>)! | z2!p! B2 B2 BB | %13
w: ni- quis|et _ a lin- gua do-|lo- sa,|Quid de- tur|ti- bi,|aut quid ap- po-|
"^cresc." G4 B4 |!<(! =c4 B4!<)! |"^cresc." z2!<(! B2 B2!<)! B=c | B4 !fermata!^A2 z3/2!ff! f/ | %17
w: na- tur|ti- bi|ad lin- guam do-|lo- sam? Sa-|
 f2 f>f ^g2 g>g | f2 f2 z2 ff | f3 f d2 (3ddd | B3 ^A A2 !fermata!z2 | z2!p! A2 A2 A2 | AAAA d3 d | %23
w: git- tæ po- ten- tis a-|cu- tæ cum car-|bo- ni- bus de- so- la-|to- ri- is.|Heu mi- hi,|qui- a in- co- la- tus|
 d2 d2 z ABA | A3 A A2 Ad | d2 d3 f dB | c3 c c2 B2 | B2 z2 e2 e2 | f2 d2 d2 dd | e2 (3ded d2 c2 | %30
w: me- us pro- * lon-|ga- tus est ha- bi-|ta- vi cum ha- bi-|tan- ti- bus Ce-|dar. mul- tum|in- co- la fu- it|a- ni- * ma me- a.|
 z2 z!mf! F A2 FA | B3 F A2 A2 | B2 A2 d2 d2 | d2 d4 (dc) | (BA)(GA) G3 B | B2 z2 z2!f! BB | %36
w: Cum- his, qui o-|de- runt pa- cem|qui o- de- runt|pa- cem, e- *|ram _ pa- * ci- fi-|cus, cum lo-|
 d2 (Bd) d2 (Be) | f3 f d2 df | a4 !fermata!a2 z2 |!p! AA B2 A2 A2 | A4 A4 |] %41
w: que bar _ il- lis- _|im- pug- na- bant me|gra- tis,|im- pug- na- bant me|gra- tis.|
V:4
!p! D, | !>!D,>D, D,3 D, D,D, | B,,2 B,B, D,2 D,2 | z D,G,,D, A,,3 D, | D,6 z2 | %5
w: Ad|Do- mi- nun cum tri- bu-|la- rer cla- ma- vi|et e- xau- di- vit|me.|
 D,2 D,D, D,2 D,D, | D,D,/D,/ D,D,/D,/ D,>D, D,D, | (B,,3 B,) D,4 | z D,G,,D, A,,2 A,,>D, | %9
w: Do- mi- ne li- be- ra|a- ni- man me- am a la- bi- is i-|ni- * quis|et _ a lin- gua do-|
 D,2 D,4 z2 | E,2"^(crescendo)" E,4 B,,2 |!f!!>(! F,,4 B,,4!>)! | z2!p! B,,2 B,,2 G,,B,, | %13
w: lo- sa,|Quid de- tur|ti- bi,|aut quid ap- po-|
"^cresc.""^*" E,4 B,,4 |!<(! A,,4 B,,4!<)! | %15
w: na- tur|ti- bi|
"^cresc."[Q:1/4=90]"^*  Nota: En esta parte se puede cambiar la velocidad de la pieza a un allegro), pero algunos directores""^lo hacen allegro moderato acentuando más la figura de saltillo (. )." z2!<(! B,2 G,2!<)! G,A, | %16
w: ad lin- guam do-|
 E,4 !fermata!F,2 z3/2!ff! F,/ | F,2 F,>F, C2 C>C | F,2 F,2 z2 F,F, | B,3 F, G,2 (3D,G,D, | %20
w: lo- sam? Sa-|git- tæ po- ten- tis a-|cu- tæ cum car-|bo- ni- bus de- so- la-|
 E,3 F, F,2 !fermata!z2 | z2!p! D,2 D,2 D,2 | D,D,D,D, B,,3 B, | D,2 D,2 z D,G,,D, | %24
w: to- ri- is.|Heu mi- hi,|qui- a in- co- la- tus|me- us pro- * lon-|
 A,,3 D, D,2 D,D, | B,2 B,3 ^A, B,G, | F,3 F, F,2 B,2 | E,2 z2 E,2 E,2 | B,,2 D,2 D,2 D,D, | %29
w: ga- tus- est ha- bi-|ta- vi cum ha- bi-|tan- ti- bus Ce-|dar. mul- tum|in- co- la fu- it|
 C,2 (3D,C,D, E,2 A,2 | z8 | z8 | z8 | z2!mf! D,2 F,2 D,F, | G,F,E,D, E,2 E,B,, | %35
w: a- ni- * ma me- a.||||Cum his, qui o-|de- runt pa- cem, e- ram pa-|
 B,,>B,, B,,2!f! B,,2 B,,2 | G,,2 G,2 F,2 E,2 | B,,2 (B,A,) G,>G, G,2 | D4 !fermata!D2 z2 | %39
w: ci- fi- cus, cum lo-|que- bar il- lis|im- pug- * na- bant me|gra- tis,|
!p! D,D, G,,2 D,2 A,,2 | D,4 D,4 |] %41
w: im- pug- na- bant me|gra- tis.|

